remix/Communication/chat-smile-fill.svg

<svg viewBox="0 0 24 24" fill="currentColor" xmlns="http://www.w3.org/2000/svg"><path d="M6.45455 19L2 22.5V4C2 3.44772 2.44772 3 3 3H21C21.5523 3 22 3.44772 22 4V18C22 18.5523 21.5523 19 21 19H6.45455ZM7 10C7 12.7614 9.23858 15 12 15C14.7614 15 17 12.7614 17 10H15C15 11.6569 13.6569 13 12 13C10.3431 13 9 11.6569 9 10H7Z"/></svg>

<svg viewBox="0 0 24 24" xmlns="http://www.w3.org/2000/svg"><path fill="none" d="M0 0h24v24H0Z"/><path d="M6.455 19L2 22.5V4v0c0-.56.44-1 1-1h18v0c.55 0 1 .44 1 1v14 0c0 .55-.45 1-1 1H6.455Zm.54-9v0c0 2.76 2.23 5 5 5 2.76 0 5-2.24 5-5h-2v0c0 1.65-1.35 3-3 3 -1.66 0-3-1.35-3-3h-2Z"/></svg>
